X: 97
T: Sleep On My Kathleen Dear   #1
B: O'Neill's 1850 #97
Z: 1999 John Chambers <jc@trillian.mit.edu>
Q: "Slow"
M: C
L: 1/8
K: G
G2 \
| c3d (cB)(AG) | G2(B/A/B/d/) e2 {a}g{f}e \
| (d<B) (AG) (ED)(EG) | G4 z2 D2 |\
| c2(cd) (cB)(AG) | G2(B/A/B/d/) e2(ge) |
| (d<B) (AG) (ED)(EG) | G4 z2 :: ze \
| (=f>e)(fg) (fe)(dB) | d2(eg) g3=f \
| (fe)(ge) (ed)(ge) | (dB) (c/B/A/G/) ED ze |
| (=f>e)(fg) e2g2 | G2Bd e2{a}g{f}e | d<B AG \
[1 (ED)(EG) | G6 :|\
[2 ({F}Ec/B/) c/B/A/G/ | G6 |]
